src/assets/svg/prev.svg

<svg aria-hidden="true" focusable="false" data-prefix="fas" data-icon="step-backward" role="img" xmlns="http://www.w3.org/2000/svg" viewBox="0 0 448 512" class="svg-inline--fa fa-step-backward fa-w-14 fa-3x"><path fill="currentColor" d="M64 468V44c0-6.6 5.4-12 12-12h48c6.6 0 12 5.4 12 12v176.4l195.5-181C352.1 22.3 384 36.6 384 64v384c0 27.4-31.9 41.7-52.5 24.6L136 292.7V468c0 6.6-5.4 12-12 12H76c-6.6 0-12-5.4-12-12z" class=""></path></svg>

<?xml version="1.0" encoding="UTF-8" standalone="no"?><!-- Generator: Gravit.io --><svg xmlns="http://www.w3.org/2000/svg" xmlns:xlink="http://www.w3.org/1999/xlink" style="isolation:isolate" viewBox="0 0 448 512" width="448pt" height="512pt"><defs><clipPath id="_clipPath_OAI60cZGOh9IV52PuBSXEG8KJdCdcMw8"><rect width="448" height="512"/></clipPath></defs><g clip-path="url(#_clipPath_OAI60cZGOh9IV52PuBSXEG8KJdCdcMw8)"><path d=" M 64 468 L 64 44 C 64 37.4 69.4 32 76 32 L 124 32 C 130.6 32 136 37.4 136 44 L 136 220.4 L 331.5 39.4 C 352.1 22.3 384 36.6 384 64 L 384 448 C 384 475.4 352.1 489.7 331.5 472.6 L 136 292.7 L 136 468 C 136 474.6 130.6 480 124 480 L 76 480 C 69.4 480 64 474.6 64 468 Z " fill="rgb(255,255,255)"/></g></svg>
